X:1196
L:1/8
M:9/8
K:Edor
 E2 B BAF Bcd | E2 B BAF A2 F | E2 B BAF Bcd | edB dBA A2 F | E2 B BAF Bcd | E2 B BAF A2 F | 
 E2 B BAF Bcd | edB dBA A2 c ||

